dist/svg/u1F90F_u1F3FE.svg

<?xml version="1.0" encoding="UTF-8"?><svg id="Layer_1" xmlns="http://www.w3.org/2000/svg" viewBox="0 0 40 40"><rect width="40" height="40" transform="translate(40 0) rotate(90)" style="fill:none;"/><g><path d="M13.81405,13.32986h6.30001c2.14022,0,3.87781,1.73759,3.87781,3.87781v7.38766H13.81405V13.32986h0Z" transform="translate(5.55198 -4.24631) rotate(15)" style="fill:#5e403b;"/><path d="M4,19.10869H14.76428v12.63632h-.00001c-5.94096,0-10.76426-4.82331-10.76426-10.76426v-1.87206h0Z" style="fill:#956759;"/><path d="M31.29663,17.08997l-.00281-.00433-4.37769,2.5069c-4.8067,2.78461-7.47174-1.41992-7.47174-3.2876v-.43066c0-2.65265,2.94818-5.45154,6.5744-3.68536,1.9494,.9494,3.67065,1.84271,5.13312,2.57684,1.26617,.63556,2.95819,.76276,3.99298-.37103,1.03418-1.133,1.23682-3.21637,.01263-4.01331-5.76093-3.75018-9.88263-6.07343-14.61499-6.7171C12.19293,2.52856,4,8.66223,4,19.10864c0,.16589,.0166,.32343,.03137,.48193h-.03137v14.94971c0,1.06586,.86407,1.92993,1.92993,1.92993H14.86005c1.06586,0,1.92993-.86407,1.92993-1.92993v-2.88586c5.00421-.42572,9.32434-2.44037,13.46533-5.89948l4.35956-3.59863c1.3161-1.04181,1.53735-2.95471,.49414-4.27258-.92767-1.17188-2.54053-1.47272-3.81238-.79376Z" style="fill:#956759;"/></g></svg>

<svg id="Layer_1" data-name="Layer 1" xmlns="http://www.w3.org/2000/svg" viewBox="0 0 40 40"><defs><style>.cls-1{fill:none;}.cls-2{fill:#5e403b;}.cls-3{fill:#956759;}</style></defs><rect class="cls-1" width="40" height="40" transform="translate(40 0) rotate(90)"/><path class="cls-2" d="M13.814,13.33h6.3a3.878,3.878,0,0,1,3.878,3.878V24.6a0,0,0,0,1,0,0H13.814a0,0,0,0,1,0,0V13.33A0,0,0,0,1,13.814,13.33Z" transform="translate(5.552 -4.246) rotate(15)"/><path class="cls-3" d="M4,19.109H14.764a0,0,0,0,1,0,0V31.745a0,0,0,0,1,0,0h0A10.764,10.764,0,0,1,4,20.981V19.109A0,0,0,0,1,4,19.109Z"/><path class="cls-3" d="M31.3,17.09l0,0-4.378,2.507c-4.807,2.784-7.472-1.42-7.472-3.288v-.431a4.4,4.4,0,0,1,6.575-3.685c1.949.949,3.67,1.843,5.133,2.577a3.341,3.341,0,0,0,3.993-.371c1.034-1.133,1.237-3.217.013-4.014C29.4,6.631,25.275,4.308,20.543,3.664,12.193,2.529,4,8.662,4,19.109c0,.166.017.323.031.482H4V34.54a1.93,1.93,0,0,0,1.93,1.93h8.93a1.93,1.93,0,0,0,1.93-1.93V31.654a23.624,23.624,0,0,0,13.465-5.9l4.36-3.6A3.04,3.04,0,0,0,31.3,17.09Z"/></svg>
